astro/public/img/icons/manage-permissions.svg

<?xml version="1.0" encoding="UTF-8"?>
<svg width="54px" height="54px" viewBox="0 0 54 54" version="1.1" xmlns="http://www.w3.org/2000/svg" xmlns:xlink="http://www.w3.org/1999/xlink">
    <title>manage-permissions</title>
    <g id="manage-permissions" stroke="none" stroke-width="1" fill="none" fill-rule="evenodd">
        <g id="icons8-todo-list-50" transform="translate(6, 7)" fill-rule="nonzero">
            <path d="M4.45102001,10.8182233 L0,6.36446588 L3.87069022,2.49377566 L6.41373916,5.03956202 L11.2178844,0 L15.0885746,3.87069022 L8.34908427,10.7908492 C6.82161246,10.8017989 5.97849182,10.8072737 4.45102001,10.8182233 Z" id="Path" fill="#6366F1"></path>
            <rect id="Rectangle" fill="#6366F1" x="22.8381672" y="5.34341393" width="19.1618328" height="5.47480936"></rect>
            <path d="M4.45102001,24.5052467 L0,20.0514893 L3.87069022,16.1807991 L6.41373916,18.7265854 L11.2178844,13.6870234 L15.0885746,17.5577136 L8.34908427,24.4778726 C6.82161246,24.4888223 5.97849182,24.4942971 4.45102001,24.5052467 Z" id="Path" fill="#6366F1"></path>
            <rect id="Rectangle" fill="#6366F1" x="22.8381672" y="19.0304373" width="19.1618328" height="5.47480936"></rect>
            <rect id="Rectangle" fill="#F58320" x="22.8381672" y="32.7174607" width="19.1618328" height="5.47480936"></rect>
            <circle id="Oval" fill="#F58320" cx="6.41373916" cy="35.4548654" r="5.47480936"></circle>
        </g>
    </g>
</svg>

<svg xmlns="http://www.w3.org/2000/svg" width="54" height="54"><g fill="none" transform="translate(6 7)"><path fill="#6366F1" d="M4.451 10.818 0 6.364l3.87-3.87L6.415 5.04 11.218 0l3.87 3.87-6.739 6.92c-1.527.012-2.37.017-3.898.028Zm18.387-5.475H42v5.475H22.838zM4.451 24.505 0 20.051l3.87-3.87 2.544 2.546 4.804-5.04 3.87 3.87-6.739 6.92c-1.527.012-2.37.017-3.898.028Zm18.387-5.475H42v5.475H22.838z"/><path fill="#F58320" d="M22.838 32.717H42v5.475H22.838z"/><circle cx="6.414" cy="35.455" r="5.475" fill="#F58320"/></g></svg>
